X: 8015
T: Connaughtman, The
R: jig
M: 6/8
K: Dmajor
|:FDE F2d|cAA BAG|FDE F2d|cAF GAG|
FDE F2d|cAG Ade|fed cAG|Adc d3:|
|:fed e2d|cAG Ade|fed e2d|cAc d2e|
fed e2d|cAG Ade|fed cAG|Adc d3:|

